img/logos/nativescript.svg

<?xml version="1.0" encoding="UTF-8" standalone="no" ?>
<svg width="256px" height="256px" viewBox="0 0 256 256" version="1.1" xmlns="http://www.w3.org/2000/svg" xmlns:xlink="http://www.w3.org/1999/xlink" preserveAspectRatio="xMinYMin meet">
    <g>
        <path d="M237.248313,18.7516875 C249.288646,30.7920202 255.539209,45.8744355 255.995734,63.9989335 L255.995734,192.001067 C255.539209,210.121298 249.288646,225.207981 237.248313,237.248313 C225.207981,249.288646 210.121298,255.539209 191.9968,256 L63.9989335,256 C45.8744355,255.539209 30.7920202,249.288646 18.7516875,237.248313 C6.71135482,225.207981 0.460792321,210.121298 0,192.001067 L0,63.9989335 C0.460792321,45.8744355 6.71135482,30.7920202 18.7516875,18.7516875 C30.7920202,6.71135482 45.8744355,0.460792321 63.9989335,0 L191.9968,0 C210.121298,0.460792321 225.207981,6.71135482 237.248313,18.7516875 L237.248313,18.7516875 L237.248313,18.7516875 Z M219.59314,121.751571 C215.569741,117.749505 213.479109,112.727722 213.312712,106.686222 L213.312712,63.9989335 C213.184714,57.9574341 211.111148,52.927118 207.092015,48.907985 C203.072883,44.8845853 198.038299,42.8152865 191.9968,42.6872886 L170.685155,42.6872886 L170.685155,149.313778 L85.3148448,42.6872886 L63.9989335,42.6872886 C57.9574341,42.8152865 52.927118,44.8845853 48.907985,48.907985 C44.8845853,52.927118 42.8152865,57.9574341 42.6872886,63.9989335 L42.6872886,106.686222 C42.5208914,112.727722 40.4302595,117.749505 36.40686,121.751571 C32.3877269,125.749371 27.3574107,127.831469 21.3159115,127.997867 C27.3574107,128.168531 32.3877269,130.250629 36.40686,134.248429 C40.4302595,138.250496 42.5208914,143.272279 42.6872886,149.313778 L42.6872886,192.001067 C42.8152865,198.038299 44.8845853,203.072883 48.907985,207.092015 C52.927118,211.111148 57.9574341,213.184714 63.9989335,213.312712 L85.3148448,213.312712 L85.3148448,106.686222 L170.685155,213.312712 L191.9968,213.312712 C198.038299,213.184714 203.072883,211.111148 207.092015,207.092015 C211.111148,203.072883 213.184714,198.038299 213.312712,192.001067 L213.312712,149.313778 C213.479109,143.272279 215.569741,138.250496 219.59314,134.248429 C223.612274,130.250629 228.642589,128.168531 234.684089,127.997867 C228.642589,127.831469 223.612274,125.749371 219.59314,121.751571 L219.59314,121.751571 L219.59314,121.751571 Z" fill="#3C5AFD"></path>
    </g>
</svg>

<svg width="256" height="256" viewBox="0 0 256 256" xmlns="http://www.w3.org/2000/svg" preserveAspectRatio="xMinYMin meet"><path d="M237.248 18.752c12.04 12.04 18.29 27.122 18.748 45.247v128c-.457 18.12-6.707 33.208-18.748 45.248-12.04 12.04-27.127 18.29-45.25 18.752h-128c-18.124-.46-33.206-6.71-45.246-18.752C6.712 225.208.462 210.12 0 192V64C.46 45.873 6.71 30.79 18.752 18.75 30.792 6.712 45.874.462 64 0h127.997c18.124.46 33.21 6.71 45.25 18.752zm-17.655 103c-4.023-4.002-6.114-9.024-6.28-15.066V64c-.128-6.043-2.202-11.073-6.22-15.092-4.02-4.023-9.055-6.093-15.096-6.22h-21.312v106.626L85.315 42.687H64c-6.043.128-11.073 2.198-15.092 6.22-4.023 4.02-6.093 9.05-6.22 15.092v42.686c-.167 6.042-2.258 11.064-6.28 15.066-4.02 3.997-9.05 6.08-15.092 6.246 6.04.17 11.072 2.253 15.09 6.25 4.024 4.002 6.115 9.024 6.28 15.066V192c.13 6.038 2.2 11.073 6.222 15.092 4.02 4.02 9.05 6.093 15.09 6.22h21.317V106.687l85.37 106.627h21.312c6.04-.128 11.076-2.202 15.095-6.22 4.02-4.02 6.093-9.055 6.22-15.092v-42.686c.167-6.042 2.258-11.064 6.28-15.066 4.02-3.997 9.05-6.08 15.092-6.25-6.04-.167-11.072-2.25-15.09-6.246z" fill="#3C5AFD"/></svg>
